assets/img/plunks/plunk-eco-ed-3.svg

<svg width="60" height="60" viewBox="0 0 60 60" fill="none" xmlns="http://www.w3.org/2000/svg">
<path d="M29.9766 18.75C34.6365 18.75 38.4141 14.9724 38.4141 10.3125C38.4141 5.6526 34.6365 1.875 29.9766 1.875C25.3167 1.875 21.5391 5.6526 21.5391 10.3125C21.5391 14.9724 25.3167 18.75 29.9766 18.75Z" fill="#00A0E3"/>
<path d="M49.6169 32.6953L40.3825 20.8359L40.2419 20.6719C39.634 20.0604 38.9108 19.5757 38.1142 19.2458C37.3176 18.9159 36.4634 18.7474 35.6012 18.75H24.3512C23.489 18.7474 22.6349 18.9159 21.8383 19.2458C21.0417 19.5757 20.3185 20.0604 19.7106 20.6719L19.5466 20.8359L10.3356 32.6953C9.45605 33.5749 8.96191 34.7678 8.96191 36.0117C8.96191 37.2556 9.45605 38.4486 10.3356 39.3281C11.2152 40.2077 12.4081 40.7018 13.652 40.7018C14.8959 40.7018 16.0889 40.2077 16.9684 39.3281L20.2731 36.75L15.6091 51.4453C15.146 52.5412 15.1126 53.7712 15.5153 54.8906C15.7259 55.4715 16.0498 56.0048 16.4683 56.4595C16.8867 56.9141 17.3913 57.2811 17.9528 57.5391C18.5057 57.8025 19.1057 57.9527 19.7175 57.9809C20.3293 58.0091 20.9405 57.9146 21.5153 57.7031C22.642 57.2944 23.5717 56.4736 24.1169 55.4062L29.9762 46.1719L35.8356 55.4062C36.3789 56.4663 37.2983 57.2854 38.4137 57.7031C38.9331 57.8872 39.4799 57.9823 40.0309 57.9844C40.7125 57.9878 41.3859 57.8354 41.9997 57.5391C43.1292 57.0116 44.005 56.0599 44.4372 54.8906C44.8444 53.7701 44.8024 52.5356 44.32 51.4453L39.6794 36.75L42.9841 39.3281C43.8714 40.1675 45.0513 40.6275 46.2726 40.61C47.494 40.5924 48.6602 40.0989 49.5231 39.2344C49.9579 38.8015 50.3021 38.2863 50.5355 37.7189C50.7689 37.1515 50.8868 36.5432 50.8825 35.9297C50.8927 34.7288 50.4394 33.5703 49.6169 32.6953Z" fill="#00A0E3"/>
</svg>

<svg width="60" height="60" fill="none" xmlns="http://www.w3.org/2000/svg"><path d="M29.977 18.75a8.438 8.438 0 100-16.875 8.438 8.438 0 000 16.875z" fill="#00A0E3"/><path d="M49.617 32.695l-9.234-11.86-.141-.163a6.515 6.515 0 00-4.64-1.922h-11.25a6.516 6.516 0 00-4.641 1.922l-.164.164-9.211 11.86a4.69 4.69 0 006.632 6.632l3.305-2.578-4.664 14.695a4.734 4.734 0 00-.094 3.446 4.664 4.664 0 002.438 2.648 4.595 4.595 0 003.562.164 4.734 4.734 0 002.602-2.297l5.86-9.234 5.859 9.234a4.781 4.781 0 002.578 2.297c.52.184 1.066.28 1.617.281A4.478 4.478 0 0042 57.54a4.735 4.735 0 002.437-2.648 4.617 4.617 0 00-.117-3.446L39.68 36.75l3.304 2.578a4.688 4.688 0 007.551-1.61 4.618 4.618 0 00.348-1.788 4.67 4.67 0 00-1.266-3.235z" fill="#00A0E3"/></svg>
